X:576
T:Reel 576
M:4/4
K:Dmaj
L:1/8
AG|FAEA FDEC|DdBA B2AF|GEED EFGB|edBc dcAB|A<E (3FGF BcdB|AFDF A2Ad|BABc dedB|AFEF D2|FG|Adde f2ed|BdAd BdAd|fded fded|Beef e2dB|Addc d2cd|edef dcAF|G2GE FEFA|BABc dedB|
